X:1
T:Marquis of Queensberry, The
M:C
L:1/8
R:Reel
B: Joseph Lowe - Lowe's Collection of Reels, Strathspeys and Jigs,
B:book 4 (1844–1845, p. 18)
Z:AK/Fiddler’s Companion
K:C
g|ec c/c/c ~c2 ec|fedc Bagf|ec c/c/c ~c2 ac|BGAB c2c:|
|:F|(EF)GF EcGc|(Bc)dB (cg)eg|aAag fedc|BGAB c2 c:|]

